X:1
T:Lily
C:Paul Rosen & Susan Bunn
S:Copyright 2005, Paul Rosen & Susan Bunn
M:3/4
L:1/8
Q:140
R:waltz
K:G
|:"G"B3A GF|"Em"E3F GA|"Am"B2d4|"D7"B2d4|"G"B3A GF|"Em"E3F GB|"D7"A6|c6|
"G"B3A GF|"Em"E3F GA|"Am"B2d4|"D7"B2d4|"C"e3f ga|"D7"f2 ab fa|"G"g6-|g6||
"G"Bd-d4|"Em"Bd-d4|"Am"cB AG FG|"D7"A2B2c2|"G"Bd-d4|"Em"Bd-d4|Bd eg eg|"D7"e2d2B2|
"G"AG-G4|"Em"EG-G4|"Am"cB AG FG|"D7"A2B2de|"C"g2 e2 ge|"D7"f2b2a2|"G"g6-|g6||
